assets/root/logo.svg

<?xml version="1.0" encoding="utf-8"?>
<!-- Generator: Adobe Illustrator 23.0.3, SVG Export Plug-In . SVG Version: 6.00 Build 0)  -->
<svg version="1.1" id="Layer_1" xmlns="http://www.w3.org/2000/svg" xmlns:xlink="http://www.w3.org/1999/xlink" x="0px" y="0px"
	 viewBox="0 0 1344 737" style="enable-background:new 0 0 1344 737;" xml:space="preserve">
<style type="text/css">
	.st0{fill:#F39614;}
	.st1{fill:#3C3C3B;}
</style>
<g>
	<g>
		<rect x="267.8" y="631.5" class="st0" width="3.5" height="45.2"/>
		<path class="st0" d="M370.3,651.2c-5.9-1.5-8.7-4.1-8.7-8.3c0-5.8,4.4-8.8,8.8-8.8c5.2,0,8.9,3.7,9.2,9.1l0,0.1l3.5-0.2l0-0.1
			c-0.3-7.3-5.6-12.4-12.7-12.4c-4.9,0-12.3,3.3-12.3,12.4c0,5.7,3.8,9.6,11.2,11.6c10.2,2.6,12.1,5.2,12.1,9.2
			c0,5.1-4.3,10.6-11.2,10.6c-2.9,0-9.8-1.1-10.6-11l0-0.1l-3.5,0.2l0,0.1c1,13.3,11,14.3,14,14.3c5.5,0,8.9-2.5,10.9-4.6
			c2.4-2.6,3.8-6.1,3.8-9.5C385,658.5,382.5,654.5,370.3,651.2z"/>
		<path class="st0" d="M490.7,630.2c-6.1,0-12,2.4-16.4,6.7c-4.6,4.5-7.2,10.6-7.2,17.3c0,6.1,2.4,12,6.7,16.4
			c4.5,4.6,10.6,7.2,17.3,7.2c6.1,0,12-2.4,16.4-6.7c4.6-4.5,7.2-10.6,7.2-17.3c0-6.1-2.4-12-6.7-16.4
			C503.5,632.8,497.3,630.2,490.7,630.2z M511.1,654c0,12.7-10.2,20.3-20.1,20.3c-12.8,0-20.4-10.2-20.4-20.1
			c0-12.8,10.2-20.4,20.1-20.4C502.1,633.7,511.1,642.6,511.1,654z"/>
		<path class="st0" d="M616.7,651.7c1.1-0.4,3.1-1.6,3.7-2.2c0.6-0.6,2.2-2.4,2.2-6.7c0-5.6-4.4-11.3-11.8-11.3h-11.3v45.2h13.1
			c6.2,0,12.6-4.9,12.6-13.1c0-4.2-2-7.1-3.7-8.8C619.7,652.9,617.8,651.9,616.7,651.7z M603,654.5h10.3c5.2,0,8.4,4.7,8.4,9.1
			c0,6-4.7,9.5-9.2,9.5H603V654.5z M612.5,651H603v-16h7.8c5.2,0,8.3,4,8.3,7.9C619.1,647.6,615.7,650.4,612.5,651z"/>
		<path class="st0" d="M743.2,660.3c0,8.6-6.8,13.8-13.4,13.8c-8.6,0-13.8-6.8-13.8-13.5v-29.1h-3.5v29.3c0,8.3,6.5,16.8,17.3,16.8
			c8.3,0,16.9-6.5,16.9-17.3v-28.8h-3.5V660.3z"/>
		<rect x="835.7" y="631.5" class="st0" width="3.5" height="45.2"/>
		<polygon class="st0" points="931.6,631.5 928.1,631.5 928.1,676.6 955.3,676.6 955.3,673.1 931.6,673.1 		"/>
		<path class="st0" d="M1066.3,638c-4.3-4.2-10-6.6-16-6.6H1039v45.2h11.3c12.5,0,22.7-10.2,22.7-22.6
			C1073,647.9,1070.6,642.3,1066.3,638z M1050.3,673.1h-7.8v-38.2h7.8c10.6,0,19.2,8.5,19.2,19
			C1069.4,664.5,1060.8,673.1,1050.3,673.1z"/>
	</g>
	<g>
		<g>
			<path class="st1" d="M663.8,206.2c-88,0-158.8,67.7-158.8,161.3c0,99.3,70.9,160.7,158.8,160.7c50,0,104.4-20.2,134.8-60.1
				l-22.1-17.7c-23.4,31-71.5,47.5-112.6,47.5c-64.5,0-120.9-42.4-127.2-115.8h281.6C830.2,260,751.7,206.2,663.8,206.2z
				 M536.6,354.9c7-76.6,62.6-120.2,127.2-120.2c75.3,0,125.9,43,126.5,120.2H536.6z"/>
			<path class="st1" d="M663.8,528.7c-43.8,0-83.9-15.4-112.7-43.2c-14.7-14.2-26.2-31.3-34.1-50.7c-8.3-20.4-12.5-43-12.5-67.2
				c0-44.9,16.5-86.2,46.6-116.1c29.5-29.5,69.6-45.7,112.7-45.7c49.6,0,92.2,16.8,119.9,47.4c13.5,14.9,23.4,33,29.4,53.7
				c6.4,22.2,8.3,47.5,5.5,75.3l0,0.4H537.1c6.1,67.7,58.1,114.9,126.7,114.9c38.1,0,87.6-14.6,112.3-47.3l0.3-0.4l22.8,18.3
				l-0.3,0.3c-14.4,18.9-35.2,34.5-60.2,45.1C715.4,523.5,689.5,528.7,663.8,528.7z M663.8,206.6c-90.3,0-158.4,69.2-158.4,160.9
				c0,94.4,65.1,160.3,158.4,160.3c54.6,0,105.9-22.8,134.2-59.6l-21.5-17.2c-11.1,14.5-28.2,26.6-49.6,35.1
				c-19.7,7.8-42.1,12.1-63.1,12.1c-32.5,0-62.9-10.8-85.7-30.5c-24.4-21-38.9-50.7-41.9-85.7l0-0.5h281.6
				c5.1-52.9-6.9-97.2-34.7-127.9C755.5,223.4,713.2,206.6,663.8,206.6z M790.8,355.3H536.1l0-0.5c3.3-36.6,17.9-67.4,42.1-89.1
				c22.7-20.3,53-31.5,85.5-31.5c37.7,0,69.4,10.8,91.6,31.3c22.9,21.1,35.1,52,35.4,89.4L790.8,355.3z M537.1,354.5h252.8
				c-0.8-73.6-49.1-119.3-126.1-119.3C594.7,235.1,543.8,283.1,537.1,354.5z"/>
		</g>
		<g>
			<path class="st1" d="M213.3,80.9c-50,0-100,0-150,0v16.3l0,0l0,0l274.2,282.1l23.1-22.4L124.8,113.2h88.5
				c127.8,0,188.6,91.7,190.5,184.1c1.9,94.9-58.8,193.6-190.5,193.6H97.5V246.8l186.4,188.6l22.9-22.6L97.5,201l0,0l-35-36.8
				l0.9,359.6c50,0,100,0,150,0c155,0,227.2-113.9,224.6-226.5C435.4,188.5,363.2,80.9,213.3,80.9z"/>
			<path class="st1" d="M213.3,524.3H62.9l0-0.4L62,163.2l35.8,37.6l209.6,212.1L283.8,436L97.9,247.9v242.6h115.4
				c56,0,103.5-18.3,137.5-52.9c34.5-35.2,53.6-86.3,52.5-140.3c-1.9-91.4-61.4-183.7-190-183.7h-87.4L361.2,357l-23.8,23L62.9,97.5
				v-17h150.4c69.4,0,127.5,23.4,167.9,67.5c35.5,38.8,55.8,91.8,57.1,149.3c0.7,30.8-4,60.5-14.1,88.3
				c-10.5,29.2-26.3,54.7-46.9,75.8c-19.3,19.7-42.4,35.1-68.8,45.7C280.1,518.5,248.1,524.3,213.3,524.3z M63.7,523.4h149.5
				c66.9,0,123.4-21.6,163.4-62.6c40-40.9,62.2-100.5,60.8-163.5c-2.5-107.5-72.8-216-224.2-216H63.7v15.7l273.7,281.6L360,357
				L123.8,112.8h89.5c59.1,0,108.5,19.9,142.8,57.6c30,33,47.1,78.1,48.1,127c1.1,54.2-18.2,105.6-52.8,140.9
				c-16.4,16.7-35.9,29.7-58,38.6c-23.9,9.7-50.9,14.6-80.1,14.6H97V245.7l186.8,189.1l22.3-22L97.2,201.3l-34.3-36L63.7,523.4z"/>
		</g>
		<g>
			<g>
				<g>
					<rect x="974.6" y="355.6" class="st1" width="102.1" height="0.9"/>
				</g>
				<g>
					<rect x="974.6" y="342.4" class="st1" width="102.1" height="27.3"/>
					<path class="st1" d="M1077.1,370.1h-103v-28.2h103V370.1z M975,369.2h101.2v-26.4H975V369.2z"/>
				</g>
			</g>
			<g>
				<g>
					<g>
						<polygon class="st1" points="1023,172.7 888.9,521.3 918,521.7 1036.7,213.1 						"/>
						<path class="st1" d="M918.3,522.2l-30-0.5l0.2-0.6l134.5-349.8l14.1,41.7l-0.1,0.1L918.3,522.2z M889.6,520.8l28.1,0.4
							l118.5-308.2L1023,174L889.6,520.8z"/>
					</g>
					<g>
						<path class="st1" d="M919.7,524.2l-34.2-0.5l137.7-358.1l16.1,47.6l-0.3,0.8L919.7,524.2z M892.4,518.9l24,0.4L1034.2,213
							l-11.3-33.3L892.4,518.9z"/>
						<path class="st1" d="M920,524.6l-35.2-0.5l0.2-0.6l138.2-359.2l16.5,48.9l-0.4,1L920,524.6z M886.1,523.2l33.3,0.5
							l119.2-309.9l0.3-0.7l-15.6-46.3L886.1,523.2z M916.7,519.7l-24.9-0.4l0.2-0.6l130.9-340.3l11.7,34.6l-0.1,0.1L916.7,519.7z
							 M893.1,518.5l23,0.3L1033.7,213l-10.8-32L893.1,518.5z"/>
					</g>
				</g>
				<g>
					<g>
						<polygon class="st1" points="1143.5,179.6 1125.3,128.8 1111.1,163.3 1192.8,376.9 1192.8,376.9 1248.3,521.4 1274.9,521.3 
													"/>
						<path class="st1" d="M1248,521.9l-55.6-144.8l-81.8-213.8l0.1-0.2l14.7-35.5l18.5,51.9l131.6,342.2L1248,521.9z M1111.5,163.3
							l81.7,213.5l55.4,144.2l25.6-0.1L1143,179.8l-17.7-49.7L1111.5,163.3z"/>
					</g>
					<g>
						<path class="st1" d="M1246.7,523.8l-56.1-146.1l-82.1-214.5l17-41.1l20.2,56.7l132.7,344.9L1246.7,523.8z M1113.7,163.3
							l81.4,212.7l54.9,143l21.4-0.1l-130.2-338.5l-16-44.9L1113.7,163.3z"/>
						<path class="st1" d="M1246.4,524.3l-56.2-146.3L1108,163.3l17.5-42.3l20.6,57.7L1279,524.1L1246.4,524.3z M1108.9,163.3
							l82.1,214.3l56,145.8l30.7-0.1L1145.3,179l-19.8-55.6L1108.9,163.3z M1249.7,519.4l-55-143.2l-81.5-212.9l12-29l16.4,46
							l130.4,339L1249.7,519.4z M1114.1,163.3l81.4,212.6l54.8,142.7l20.5-0.1l-130-337.9l-15.6-43.8L1114.1,163.3z"/>
					</g>
				</g>
				<g>
					<g>
						<polygon class="st1" points="1056.2,142.4 1036.1,86 1020.3,124.3 1111,361.2 1111,361.2 1172.5,521.4 1201.9,521.3 						"/>
						<path class="st1" d="M1172.2,521.9l-61.6-160.5l-90.8-237.1l16.3-39.4l20.5,57.4l146,379.5L1172.2,521.9z M1020.8,124.3
							l90.6,236.7l61.4,160l28.5-0.1l-145.5-378.3l-19.7-55.3L1020.8,124.3z"/>
					</g>
					<g>
						<path class="st1" d="M1170.9,523.8L1108.7,362l-91-237.8l18.6-44.9l22.2,62.2l147,382.1L1170.9,523.8z M1022.9,124.3l90.4,236
							l60.9,158.7l24.3-0.1L1054,143.2l-18-50.5L1022.9,124.3z"/>
						<path class="st1" d="M1170.6,524.3l-62.2-162.1l-91.1-238l0.1-0.2l19-45.9l22.6,63.3l147.2,382.7L1170.6,524.3z M1018.2,124.2
							l91,237.6l62,161.5l33.6-0.2l-146.7-381.5l-21.8-61.1L1018.2,124.2z M1173.9,519.4l-61-159l-90.4-236.2l0.1-0.2l13.5-32.6
							l18.4,51.5l144.7,376.3L1173.9,519.4z M1023.4,124.3l90.3,235.8l60.8,158.4l23.4-0.1l-144.3-375.1L1035.9,94L1023.4,124.3z"/>
					</g>
				</g>
			</g>
		</g>
	</g>
</g>
</svg>

<svg width="1344" height="737" viewBox="0 0 1344 737" fill="none" xmlns="http://www.w3.org/2000/svg">
<path d="M271.3 631.5H267.8V676.7H271.3V631.5Z" fill="#2E3545"/>
<path d="M370.3 651.2C364.4 649.7 361.6 647.1 361.6 642.9C361.6 637.1 366 634.1 370.4 634.1C375.6 634.1 379.3 637.8 379.6 643.2V643.3L383.1 643.1V643C382.8 635.7 377.5 630.6 370.4 630.6C365.5 630.6 358.1 633.9 358.1 643C358.1 648.7 361.9 652.6 369.3 654.6C379.5 657.2 381.4 659.8 381.4 663.8C381.4 668.9 377.1 674.4 370.2 674.4C367.3 674.4 360.4 673.3 359.6 663.4V663.3L356.1 663.5V663.6C357.1 676.9 367.1 677.9 370.1 677.9C375.6 677.9 379 675.4 381 673.3C383.4 670.7 384.8 667.2 384.8 663.8C385 658.5 382.5 654.5 370.3 651.2Z" fill="#2E3545"/>
<path d="M490.7 630.2C484.6 630.2 478.7 632.6 474.3 636.9C469.7 641.4 467.1 647.5 467.1 654.2C467.1 660.3 469.5 666.2 473.8 670.6C478.3 675.2 484.4 677.8 491.1 677.8C497.2 677.8 503.1 675.4 507.5 671.1C512.1 666.6 514.7 660.5 514.7 653.8C514.7 647.7 512.3 641.8 508 637.4C503.5 632.8 497.3 630.2 490.7 630.2ZM511.1 654C511.1 666.7 500.9 674.3 491 674.3C478.2 674.3 470.6 664.1 470.6 654.2C470.6 641.4 480.8 633.8 490.7 633.8C502.1 633.7 511.1 642.6 511.1 654Z" fill="#2E3545"/>
<path d="M616.7 651.7C617.8 651.3 619.8 650.1 620.4 649.5C621 648.9 622.6 647.1 622.6 642.8C622.6 637.2 618.2 631.5 610.8 631.5H599.5V676.7H612.6C618.8 676.7 625.2 671.8 625.2 663.6C625.2 659.4 623.2 656.5 621.5 654.8C619.7 652.9 617.8 651.9 616.7 651.7ZM603 654.5H613.3C618.5 654.5 621.7 659.2 621.7 663.6C621.7 669.6 617 673.1 612.5 673.1H603V654.5ZM612.5 651H603V635H610.8C616 635 619.1 639 619.1 642.9C619.1 647.6 615.7 650.4 612.5 651Z" fill="#2E3545"/>
<path d="M743.2 660.3C743.2 668.9 736.4 674.1 729.8 674.1C721.2 674.1 716 667.3 716 660.6V631.5H712.5V660.8C712.5 669.1 719 677.6 729.8 677.6C738.1 677.6 746.7 671.1 746.7 660.3V631.5H743.2V660.3Z" fill="#2E3545"/>
<path d="M839.2 631.5H835.7V676.7H839.2V631.5Z" fill="#2E3545"/>
<path d="M931.6 631.5H928.1V676.6H955.3V673.1H931.6V631.5Z" fill="#2E3545"/>
<path d="M1066.3 638C1062 633.8 1056.3 631.4 1050.3 631.4H1039V676.6H1050.3C1062.8 676.6 1073 666.4 1073 654C1073 647.9 1070.6 642.3 1066.3 638ZM1050.3 673.1H1042.5V634.9H1050.3C1060.9 634.9 1069.5 643.4 1069.5 653.9C1069.4 664.5 1060.8 673.1 1050.3 673.1Z" fill="#2E3545"/>
<path d="M663.8 206.2C575.8 206.2 505 273.9 505 367.5C505 466.8 575.9 528.2 663.8 528.2C713.8 528.2 768.2 508 798.6 468.1L776.5 450.4C753.1 481.4 705 497.9 663.9 497.9C599.4 497.9 543 455.5 536.7 382.1H818.3C830.2 260 751.7 206.2 663.8 206.2ZM536.6 354.9C543.6 278.3 599.2 234.7 663.8 234.7C739.1 234.7 789.7 277.7 790.3 354.9H536.6Z" fill="#2E3545"/>
<path d="M663.8 528.7C620 528.7 579.9 513.3 551.1 485.5C536.4 471.3 524.9 454.2 517 434.8C508.7 414.4 504.5 391.8 504.5 367.6C504.5 322.7 521 281.4 551.1 251.5C580.6 222 620.7 205.8 663.8 205.8C713.4 205.8 756 222.6 783.7 253.2C797.2 268.1 807.1 286.2 813.1 306.9C819.5 329.1 821.4 354.4 818.6 382.2V382.6H537.1C543.2 450.3 595.2 497.5 663.8 497.5C701.9 497.5 751.4 482.9 776.1 450.2L776.4 449.8L799.2 468.1L798.9 468.4C784.5 487.3 763.7 502.9 738.7 513.5C715.4 523.5 689.5 528.7 663.8 528.7ZM663.8 206.6C573.5 206.6 505.4 275.8 505.4 367.5C505.4 461.9 570.5 527.8 663.8 527.8C718.4 527.8 769.7 505 798 468.2L776.5 451C765.4 465.5 748.3 477.6 726.9 486.1C707.2 493.9 684.8 498.2 663.8 498.2C631.3 498.2 600.9 487.4 578.1 467.7C553.7 446.7 539.2 417 536.2 382V381.5H817.8C822.9 328.6 810.9 284.3 783.1 253.6C755.5 223.4 713.2 206.6 663.8 206.6ZM790.8 355.3H536.1V354.8C539.4 318.2 554 287.4 578.2 265.7C600.9 245.4 631.2 234.2 663.7 234.2C701.4 234.2 733.1 245 755.3 265.5C778.2 286.6 790.4 317.5 790.7 354.9L790.8 355.3ZM537.1 354.5H789.9C789.1 280.9 740.8 235.2 663.8 235.2C594.7 235.1 543.8 283.1 537.1 354.5Z" fill="#2E3545"/>
<path d="M213.3 80.9C163.3 80.9 113.3 80.9 63.3 80.9V97.2L337.5 379.3L360.6 356.9L124.8 113.2H213.3C341.1 113.2 401.9 204.9 403.8 297.3C405.7 392.2 345 490.9 213.3 490.9H97.5V246.8L283.9 435.4L306.8 412.8L97.5 201L62.5 164.2L63.4 523.8C113.4 523.8 163.4 523.8 213.4 523.8C368.4 523.8 440.6 409.9 438 297.3C435.4 188.5 363.2 80.9 213.3 80.9Z" fill="#2E3545"/>
<path d="M213.3 524.3H62.9V523.9L62 163.2L97.8 200.8L307.4 412.9L283.8 436L97.9 247.9V490.5H213.3C269.3 490.5 316.8 472.2 350.8 437.6C385.3 402.4 404.4 351.3 403.3 297.3C401.4 205.9 341.9 113.6 213.3 113.6H125.9L361.2 357L337.4 380L62.9 97.5V80.5H213.3C282.7 80.5 340.8 103.9 381.2 148C416.7 186.8 437 239.8 438.3 297.3C439 328.1 434.3 357.8 424.2 385.6C413.7 414.8 397.9 440.3 377.3 461.4C358 481.1 334.9 496.5 308.5 507.1C280.1 518.5 248.1 524.3 213.3 524.3ZM63.7 523.4H213.2C280.1 523.4 336.6 501.8 376.6 460.8C416.6 419.9 438.8 360.3 437.4 297.3C434.9 189.8 364.6 81.3 213.2 81.3H63.7V97L337.4 378.6L360 357L123.8 112.8H213.3C272.4 112.8 321.8 132.7 356.1 170.4C386.1 203.4 403.2 248.5 404.2 297.4C405.3 351.6 386 403 351.4 438.3C335 455 315.5 468 293.4 476.9C269.5 486.6 242.5 491.5 213.3 491.5H97V245.7L283.8 434.8L306.1 412.8L97.2 201.3L62.9 165.3L63.7 523.4Z" fill="#2E3545"/>
<path d="M1076.7 355.6H974.6V356.5H1076.7V355.6Z" fill="#2E3545"/>
<path d="M1076.7 342.4H974.6V369.7H1076.7V342.4Z" fill="#2E3545"/>
<path d="M1077.1 370.1H974.1V341.9H1077.1V370.1ZM975 369.2H1076.2V342.8H975V369.2Z" fill="#2E3545"/>
<path d="M1023 172.7L888.9 521.3L918 521.7L1036.7 213.1L1023 172.7Z" fill="#2E3545"/>
<path d="M918.3 522.2L888.3 521.7L888.5 521.1L1023 171.3L1037.1 213L1037 213.1L918.3 522.2ZM889.6 520.8L917.7 521.2L1036.2 213L1023 174L889.6 520.8Z" fill="#2E3545"/>
<path d="M919.7 524.2L885.5 523.7L1023.2 165.6L1039.3 213.2L1039 214L919.7 524.2ZM892.4 518.9L916.4 519.3L1034.2 213L1022.9 179.7L892.4 518.9Z" fill="#2E3545"/>
<path d="M920 524.6L884.8 524.1L885 523.5L1023.2 164.3L1039.7 213.2L1039.3 214.2L920 524.6ZM886.1 523.2L919.4 523.7L1038.6 213.8L1038.9 213.1L1023.3 166.8L886.1 523.2ZM916.7 519.7L891.8 519.3L892 518.7L1022.9 178.4L1034.6 213L1034.5 213.1L916.7 519.7ZM893.1 518.5L916.1 518.8L1033.7 213L1022.9 181L893.1 518.5Z" fill="#2E3545"/>
<path d="M1143.5 179.6L1125.3 128.8L1111.1 163.3L1192.8 376.9L1248.3 521.4L1274.9 521.3L1143.5 179.6Z" fill="#2E3545"/>
<path d="M1248 521.9L1192.4 377.1L1110.6 163.3L1110.7 163.1L1125.4 127.6L1143.9 179.5L1275.5 521.7L1248 521.9ZM1111.5 163.3L1193.2 376.8L1248.6 521L1274.2 520.9L1143 179.8L1125.3 130.1L1111.5 163.3Z" fill="#2E3545"/>
<path d="M1246.7 523.8L1190.6 377.7L1108.5 163.2L1125.5 122.1L1145.7 178.8L1278.4 523.7L1246.7 523.8ZM1113.7 163.3L1195.1 376L1250 519L1271.4 518.9L1141.2 180.4L1125.2 135.5L1113.7 163.3Z" fill="#2E3545"/>
<path d="M1246.4 524.3L1190.2 378L1108 163.3L1125.5 121L1146.1 178.7L1279 524.1L1246.4 524.3ZM1108.9 163.3L1191 377.6L1247 523.4L1277.7 523.3L1145.3 179L1125.5 123.4L1108.9 163.3ZM1249.7 519.4L1194.7 376.2L1113.2 163.3L1125.2 134.3L1141.6 180.3L1272 519.3L1249.7 519.4ZM1114.1 163.3L1195.5 375.9L1250.3 518.6L1270.8 518.5L1140.8 180.6L1125.2 136.8L1114.1 163.3Z" fill="#2E3545"/>
<path d="M1056.2 142.4L1036.1 86L1020.3 124.3L1111 361.2L1172.5 521.4L1201.9 521.3L1056.2 142.4Z" fill="#2E3545"/>
<path d="M1172.2 521.9L1110.6 361.4L1019.8 124.3L1036.1 84.9L1056.6 142.3L1202.6 521.8L1172.2 521.9ZM1020.8 124.3L1111.4 361L1172.8 521L1201.3 520.9L1055.8 142.6L1036.1 87.3L1020.8 124.3Z" fill="#2E3545"/>
<path d="M1170.9 523.8L1108.7 362L1017.7 124.2L1036.3 79.2999L1058.5 141.5L1205.5 523.6L1170.9 523.8ZM1022.9 124.3L1113.3 360.3L1174.2 519L1198.5 518.9L1054 143.2L1036 92.6999L1022.9 124.3Z" fill="#2E3545"/>
<path d="M1170.6 524.3L1108.4 362.2L1017.3 124.2L1017.4 124L1036.4 78.1L1059 141.4L1206.2 524.1L1170.6 524.3ZM1018.2 124.2L1109.2 361.8L1171.2 523.3L1204.8 523.1L1058.1 141.6L1036.3 80.5L1018.2 124.2ZM1173.9 519.4L1112.9 360.4L1022.5 124.2L1022.6 124L1036.1 91.4L1054.5 142.9L1199.2 519.2L1173.9 519.4ZM1023.4 124.3L1113.7 360.1L1174.5 518.5L1197.9 518.4L1053.6 143.3L1035.9 94L1023.4 124.3Z" fill="#2E3545"/>
</svg>
